uploads/exercises/chest.svg

<svg width="34" height="34" viewBox="0 0 34 34" fill="none" xmlns="http://www.w3.org/2000/svg">
<path d="M28.8997 2.95878C28.8997 2.63208 29.1534 2.36721 29.4664 2.36721C29.7793 2.36721 30.033 2.63208 30.033 2.95878C30.033 3.28547 29.7793 3.55034 29.4664 3.55034C29.1534 3.55034 28.8997 3.28547 28.8997 2.95878ZM4.81739 29.4569C4.59611 29.2259 4.23742 29.2259 4.01614 29.4569L3.56678 29.926L3.11742 29.4569C2.89614 29.2259 2.53744 29.2259 2.31616 29.4569C2.09488 29.6879 2.09488 30.0623 2.31616 30.2933L2.76552 30.7625L2.31616 31.2316C2.09488 31.4626 2.09488 31.837 2.31616 32.068C2.4268 32.1836 2.57187 32.2414 2.71679 32.2414C2.86171 32.2414 3.00678 32.1836 3.11742 32.068L3.56678 31.5989L4.01614 32.068C4.12678 32.1836 4.27184 32.2414 4.41677 32.2414C4.56169 32.2414 4.70675 32.1836 4.81739 32.068C5.03867 31.837 5.03867 31.4626 4.81739 31.2316L4.36803 30.7625L4.81739 30.2933C5.03867 30.0623 5.03867 29.688 4.81739 29.4569ZM33.9594 9.24625C32.8299 6.29936 28.2673 5.96024 27.1545 5.92164C24.9555 3.66895 23.2571 2.79683 22.5765 2.51066L22.0829 0.449198C22.0071 0.132561 21.6989 -0.0620646 21.3961 0.0188323C21.0923 0.0979545 20.9075 0.419176 20.9839 0.736404L21.5506 3.10267C21.5987 3.30543 21.7492 3.46752 21.9418 3.52698C21.9607 3.53274 23.8465 4.14014 26.5161 6.92672C26.6223 7.03764 26.7662 7.09975 26.9161 7.10005C28.3078 7.10182 32.0962 7.57005 32.907 9.68608C32.9954 9.91694 33.2084 10.0579 33.4331 10.0579C33.5034 10.0579 33.5748 10.044 33.6433 10.0154C33.9339 9.89387 34.0756 9.54988 33.9594 9.24625ZM7.76742 6.92642C10.4396 4.13673 12.0667 3.52461 12.0794 3.52003C12.2632 3.45584 12.4031 3.29848 12.4496 3.10238L13.0162 0.736108C13.0926 0.41888 12.9077 0.0978067 12.604 0.0185367C12.2991 -0.0629518 11.9926 0.132118 11.9172 0.448902L11.4191 2.52841C10.8043 2.82508 9.28749 3.70178 7.1288 5.9212C5.98273 5.95788 1.17392 6.28945 0.0405994 9.24611C-0.0755657 9.54973 0.066099 9.89372 0.356512 10.0153C0.425219 10.044 0.496618 10.0579 0.566884 10.0579C0.791565 10.0579 1.00463 9.91694 1.09317 9.68579C1.90392 7.56916 5.89702 7.10138 7.36736 7.09975C7.51724 7.09945 7.66117 7.03734 7.76742 6.92642ZM29.5052 16.4533L27.5224 18.6353H20.095C19.4426 18.6353 18.846 18.2122 18.5665 17.5541L17.5604 13.7456C17.4929 13.4888 17.2693 13.3111 17.0143 13.3111C16.7593 13.3111 16.5356 13.4887 16.4682 13.7456L15.4621 17.5541C15.1826 18.2121 14.586 18.6353 13.9337 18.6353H7.04366L5.06148 16.4536C4.84672 16.2164 4.4876 16.2063 4.26023 16.4314C4.03328 16.6562 4.02393 17.0308 4.23926 17.2676L6.38917 19.6339C6.49598 19.7518 6.64487 19.8185 6.80028 19.8185H13.9338C15.0538 19.8185 16.0693 19.0972 16.5203 17.9808C16.5297 17.9571 16.5375 17.9328 16.5441 17.908L17.0145 16.1278L17.4848 17.908C17.4914 17.9328 17.4992 17.9571 17.5086 17.9808C17.9596 19.0972 18.9751 19.8185 20.0951 19.8185H27.766C27.9215 19.8185 28.0703 19.7518 28.1771 19.6342L30.3275 17.2679C30.5429 17.0307 30.5334 16.6564 30.3066 16.4314C30.0796 16.206 29.7199 16.2165 29.5052 16.4533ZM8.47079 22.6677C8.52108 22.5101 8.50564 22.3379 8.42871 22.1929C8.35122 22.0476 8.21905 21.9432 8.06407 21.9049C7.37062 21.7334 5.82902 21.1499 5.4903 20.4427C5.36635 20.1833 5.07919 20.0576 4.81569 20.1423C4.55064 20.2281 4.38404 20.5017 4.42229 20.7888C4.44382 20.9503 4.96742 24.7795 6.58041 27.779L7.81672 30.3143V33.1304C7.81672 33.457 8.07016 33.7219 8.38338 33.7219C8.6966 33.7219 8.95004 33.457 8.95004 33.1304V30.1725C8.95004 30.0792 8.92907 29.9874 8.88856 29.9042L7.57986 27.2213C6.69941 25.5836 6.15712 23.6381 5.85608 22.2863C6.36522 22.5758 6.89803 22.7785 7.28151 22.9042C7.15472 24.806 9.00033 26.7976 9.23266 27.04C9.45394 27.271 9.81264 27.271 10.0339 27.04C10.2552 26.809 10.2552 26.4345 10.0339 26.2035C9.51061 25.6565 8.09892 23.8333 8.47079 22.6677ZM29.6624 20.1506C29.3924 20.0475 29.0891 20.1721 28.9596 20.4412C28.6553 21.0767 27.0195 21.6772 25.9553 21.9005C25.796 21.934 25.6581 22.0371 25.5762 22.1838C25.4949 22.3305 25.4778 22.5068 25.5292 22.6676C25.9017 23.834 24.5265 25.6154 23.9654 26.2034C23.7445 26.4347 23.7451 26.8092 23.9665 27.0399C24.1878 27.2701 24.5459 27.2715 24.7672 27.0396C24.9985 26.7984 26.828 24.8239 26.72 22.9301C27.1805 22.8068 27.8267 22.6025 28.4328 22.3027C28.0188 23.6604 27.352 25.5815 26.4826 27.1987L24.9016 29.8605C24.8457 29.9541 24.8164 30.062 24.8164 30.1721V33.1299C24.8164 33.4566 25.0698 33.7215 25.383 33.7215C25.6962 33.7215 25.9497 33.4566 25.9497 33.1299V30.3405L27.4581 27.7997C29.0673 24.8067 29.9782 21.0079 30.0164 20.8476C30.0857 20.5554 29.9336 20.2549 29.6624 20.1506ZM16.8833 31.6498C16.5703 31.6498 16.3166 31.9147 16.3166 32.2414C16.3166 32.5681 16.5703 32.8329 16.8833 32.8329C17.1962 32.8329 17.4499 32.5681 17.4499 32.2414C17.4499 31.9147 17.1962 31.6498 16.8833 31.6498ZM10.0967 6.67574C10.0291 6.9946 10.2218 7.31064 10.5272 7.38134L15.4661 8.5272L16.4826 9.58847C16.5933 9.70398 16.7383 9.7618 16.8833 9.7618C17.0282 9.7618 17.1733 9.70398 17.2839 9.58847L18.3005 8.5272L23.2393 7.38134C23.5448 7.3105 23.7374 6.9946 23.6699 6.67574C23.6023 6.3563 23.2991 6.15694 22.9937 6.2266L17.8938 7.40973C17.7887 7.43399 17.6923 7.48915 17.616 7.56886L16.8833 8.33376L16.1506 7.56886C16.0742 7.48915 15.9779 7.43399 15.8728 7.40973L10.7728 6.2266C10.4701 6.15753 10.1647 6.3563 10.0967 6.67574ZM16.8833 25.1426C16.57 25.1426 16.3166 25.4074 16.3166 25.7341V30.4667C16.3166 30.7934 16.57 31.0582 16.8833 31.0582C17.1965 31.0582 17.4499 30.7934 17.4499 30.4667V25.7341C17.4499 25.4074 17.1965 25.1426 16.8833 25.1426Z" fill="#f1e8e8"/>
</svg>

<svg width="34" height="34" fill="none" xmlns="http://www.w3.org/2000/svg"><path d="M28.9 2.959a.58.58 0 0 1 .566-.592.58.58 0 0 1 .567.592.58.58 0 0 1-.567.591.58.58 0 0 1-.566-.591ZM4.817 29.457a.55.55 0 0 0-.8 0l-.45.469-.45-.47a.55.55 0 0 0-.8 0 .61.61 0 0 0 0 .837l.449.47-.45.469a.61.61 0 0 0 0 .836.553.553 0 0 0 .801 0l.45-.47.45.47a.553.553 0 0 0 .8 0 .61.61 0 0 0 0-.836l-.449-.47.45-.469a.61.61 0 0 0 0-.836ZM33.96 9.247c-1.13-2.948-5.692-3.287-6.805-3.325-2.198-2.253-3.897-3.125-4.578-3.411L22.084.449a.564.564 0 0 0-.687-.43.593.593 0 0 0-.412.717l.567 2.367a.584.584 0 0 0 .39.424c.02.006 1.905.613 4.575 3.4.106.11.25.173.4.173 1.392.002 5.18.47 5.991 2.586.088.23.301.372.526.372.07 0 .142-.014.21-.043a.6.6 0 0 0 .316-.769ZM7.767 6.926c2.673-2.79 4.3-3.402 4.312-3.407a.581.581 0 0 0 .37-.418l.567-2.366a.593.593 0 0 0-.412-.717.563.563 0 0 0-.687.43l-.498 2.08c-.615.296-2.132 1.173-4.29 3.392-1.146.037-5.955.368-7.088 3.325a.601.601 0 0 0 .316.77c.068.028.14.042.21.042a.568.568 0 0 0 .526-.372C1.903 7.569 5.897 7.1 7.367 7.1c.15 0 .294-.063.4-.174Zm21.738 9.526-1.983 2.182h-7.427c-.652 0-1.249-.423-1.528-1.08l-1.007-3.81a.57.57 0 0 0-.546-.434.57.57 0 0 0-.546.435l-1.006 3.808c-.28.658-.876 1.081-1.528 1.081h-6.89L5.06 16.454a.55.55 0 0 0-.8-.023.61.61 0 0 0-.022.837l2.15 2.366a.555.555 0 0 0 .411.184h7.134c1.12 0 2.135-.72 2.586-1.837a.652.652 0 0 0 .024-.073l.47-1.78.47 1.78c.007.025.015.05.025.073.45 1.116 1.466 1.837 2.586 1.837h7.671a.556.556 0 0 0 .411-.184l2.15-2.366a.61.61 0 0 0-.02-.837.55.55 0 0 0-.802.022ZM8.471 22.668a.616.616 0 0 0-.042-.475.57.57 0 0 0-.365-.288c-.693-.172-2.235-.755-2.574-1.462a.56.56 0 0 0-.674-.3.593.593 0 0 0-.394.646c.022.161.545 3.99 2.158 6.99l1.237 2.535v2.816a.58.58 0 0 0 .566.592.58.58 0 0 0 .567-.592v-2.958a.613.613 0 0 0-.061-.268l-1.31-2.683c-.88-1.637-1.422-3.583-1.723-4.935.51.29 1.042.492 1.426.618-.127 1.902 1.718 3.894 1.95 4.136a.55.55 0 0 0 .802 0 .61.61 0 0 0 0-.837c-.523-.546-1.935-2.37-1.563-3.535Zm21.191-2.517a.56.56 0 0 0-.702.29c-.305.636-1.94 1.236-3.005 1.46a.57.57 0 0 0-.379.283.615.615 0 0 0-.047.484c.373 1.166-1.003 2.947-1.564 3.535a.61.61 0 0 0 .002.837.55.55 0 0 0 .8 0c.232-.242 2.061-2.216 1.953-4.11a9.549 9.549 0 0 0 1.713-.627c-.414 1.357-1.081 3.278-1.95 4.896l-1.581 2.661a.608.608 0 0 0-.086.312v2.958a.58.58 0 0 0 .567.591.58.58 0 0 0 .567-.591v-2.79l1.508-2.54c1.61-2.993 2.52-6.792 2.558-6.952a.597.597 0 0 0-.354-.697ZM16.883 31.65a.58.58 0 0 0-.566.591.58.58 0 0 0 .566.592.58.58 0 0 0 .567-.592.58.58 0 0 0-.567-.591ZM10.097 6.676a.593.593 0 0 0 .43.705l4.94 1.146 1.016 1.061a.553.553 0 0 0 .8 0l1.017-1.06 4.94-1.147a.593.593 0 0 0 .43-.705.567.567 0 0 0-.676-.45l-5.1 1.184a.559.559 0 0 0-.278.159l-.733.765-.732-.765a.56.56 0 0 0-.278-.16l-5.1-1.182a.57.57 0 0 0-.676.449Zm6.786 18.467a.58.58 0 0 0-.566.591v4.733a.58.58 0 0 0 .566.591.58.58 0 0 0 .567-.591v-4.733a.58.58 0 0 0-.567-.591Z" fill="#946E86"/></svg>
